(/Applications/pcbgcode.repo/pcb-gcode.ulp)
(Copyright 2005 - 2012 by John Johnson)
(See readme.txt for licensing terms.)
(This file generated from the board:)
(.../eurorack/808-Cymbale/eagle/808_CY.brd)
(Current profile is .../pcbgcode.repo/profiles/mach.pp  )
(This file generated 4/22/16 11:28 PM)
(Settings from pcb-machine.h)
(spindle on time = 0.0000)
(spindle speed = 15000.0000)
(milling depth = -0.0700)
(tool change at 0.0000  0.0000  1.5000  )
(feed rate xy = F10    )
(feed rate z  = F5     )
(Z Axis Settings)
(  High     Up        Down     Drill)
(0.2500  	0.0500  	-0.0035 	-0.0730 )
(Settings from pcb-defaults.h)
(isolate min = 0.0060)
(isolate max = 0.0200)
(isolate step = 0.0015)
(Generated bottom outlines, bottom drill, )
(Unit of measure: inch)
(Inch Mode)
G20
(Absolute Coordinates)
G90
S15000
G00 Z0.2500  
G00 X0.0000  Y0.0000  
M03
G04 P0.000000
G00 Z0.0500  
G00 X-0.0300 Y0.0000  
G01 Z-0.0700 F5     
G01 X0.0100  Y-0.0400 F10    
G01 X3.8100  Y-0.0400 
G01 X3.8600  Y0.0100  
G01 X3.8600  Y3.1400  
G01 X3.8100  Y3.1900  
G01 X0.0300  Y3.1900  
G01 X0.0200  Y3.1800  
G01 X0.0100  Y3.1800  
G01 X-0.0300 Y3.1400  
G01 X-0.0300 Y0.0100  
G00 Z0.0500  
G00 X0.3200  Y0.2400  
G01 Z-0.0700 F5     
G01 X0.3700  Y0.2400  F10    
G01 X0.3700  Y0.2900  
G01 X0.3300  Y0.2900  
G00 Z0.0500  
G00 X0.3200  Y0.2900  
G01 Z-0.0700 F5     
G01 X0.3200  Y0.2400  F10    
G00 Z0.0500  
G00 X0.3100  Y3.0000  
G01 Z-0.0700 F5     
G01 X0.3600  Y3.0000  F10    
G01 X0.3600  Y3.0500  
G01 X0.3200  Y3.0500  
G00 Z0.0500  
G00 X0.3100  Y3.0500  
G01 Z-0.0700 F5     
G01 X0.3100  Y3.0000  F10    
G00 Z0.0500  
G00 X3.6400  Y3.0000  
G01 Z-0.0700 F5     
G01 X3.6900  Y3.0000  F10    
G01 X3.6900  Y3.0500  
G01 X3.6500  Y3.0500  
G00 Z0.0500  
G00 X3.6400  Y3.0500  
G01 Z-0.0700 F5     
G01 X3.6400  Y3.0000  F10    
G00 Z0.0500  
G00 X3.2900  Y0.4800  
G01 Z-0.0700 F5     
G01 X3.2500  Y0.4800  F10    
G00 Z0.0500  
G00 X3.2400  Y0.4800  
G01 Z-0.0700 F5     
G01 X3.2400  Y0.4300  F10    
G01 X3.2900  Y0.4300  
G01 X3.2900  Y0.4800  
G00 Z0.2500  
M05
M02
