(/Applications/pcbgcode.repo/pcb-gcode.ulp)
(Copyright 2005 - 2012 by John Johnson)
(See readme.txt for licensing terms.)
(This file generated from the board:)
(.../eurorack/808-Cymbale/eagle/808_CY.brd)
(Current profile is .../pcbgcode.repo/profiles/mach.pp  )
(This file generated 4/22/16 11:28 PM)
(Settings from pcb-machine.h)
(spindle on time = 0.0000)
(spindle speed = 20000.0000)
(tool change at 0.0000  0.0000  1.5000  )
(feed rate xy = F0     )
(feed rate z  = F20    )
(Z Axis Settings)
(  High     Up        Down     Drill)
(0.2500  	0.0500  	-0.0035 	-0.0730 )
(Settings from pcb-defaults.h)
(isolate min = 0.0060)
(isolate max = 0.0200)
(isolate step = 0.0015)
(Generated bottom outlines, bottom drill, )
(Unit of measure: inch)
( Tool|       Size       |  Min Sub |  Max Sub |   Count )
( T01 | 0.800mm 0.0315in | 0.0000in | 0.0000in |       0 )
( T02 | 0.813mm 0.0320in | 0.0000in | 0.0000in |       0 )
( T03 | 1.000mm 0.0394in | 0.0000in | 0.0000in |       0 )
( T04 | 1.016mm 0.0400in | 0.0000in | 0.0000in |       0 )
( T05 | 1.200mm 0.0472in | 0.0000in | 0.0000in |       0 )
( T06 | 1.300mm 0.0512in | 0.0000in | 0.0000in |       0 )
(Inch Mode)
G20
(Absolute Coordinates)
G90
S20000
G00 Z0.2500  
G00 X0.0000  Y0.0000  
M03
G04 P0.000000
M05
G00 Z1.5000  
M06 T01  ; 0.0315  
G01 Z0.0000  F20    
M06 
G00 Z0.0500  
M03
G04 P0.000000
G82 X-0.5000 Y1.2311  Z-0.0730 F20    R0.0500  P0.010000
G82 X-0.5000 Y1.3689  
G82 X-0.7811 Y2.1500  
G82 X-0.9189 Y2.1500  
G82 X-1.1700 Y2.1611  
G82 X-1.1700 Y2.2989  
G82 X-0.8100 Y2.7811  
G82 X-0.8100 Y2.9189  
G82 X-0.8311 Y3.0000  
G82 X-0.9689 Y3.0000  
G82 X-1.2813 Y2.9000  
G82 X-1.4387 Y2.9000  
G82 X-1.6000 Y2.9287  
G82 X-1.6000 Y2.7713  
G82 X-2.3500 Y2.6689  
G82 X-2.3500 Y2.5311  
G82 X-2.5011 Y2.2500  
G82 X-2.6389 Y2.2500  
G82 X-2.3689 Y2.1500  
G82 X-2.2311 Y2.1500  
G82 X-2.3700 Y1.9500  
G82 X-2.3811 Y1.7000  
G82 X-2.2689 Y1.7000  
G82 X-2.1311 Y1.7000  
G82 X-1.9500 Y1.6689  
G82 X-1.9500 Y1.5311  
G82 X-2.0000 Y1.2289  
G82 X-2.0000 Y1.0911  
G82 X-2.1500 Y1.0911  
G82 X-2.1500 Y1.2289  
G82 X-2.5189 Y1.7000  
G82 X-2.8900 Y1.9500  
G82 X-2.9811 Y1.6500  
G82 X-3.1189 Y1.6500  
G82 X-3.4011 Y1.8400  
G82 X-3.5389 Y1.8400  
G82 X-3.4900 Y2.5511  
G82 X-3.4900 Y2.6889  
G82 X-2.7900 Y1.2800  
G82 X-2.9000 Y0.7500  
G82 X-2.0789 Y0.6000  
G82 X-1.9411 Y0.6000  
G82 X-1.3900 Y0.7611  
G82 X-1.3900 Y0.8989  
M05
G00 Z1.5000  
G00 X0.0000  Y0.0000  
M06 T02  ; 0.0320  
G01 Z0.0000  F20    
M06 
G00 Z0.0500  
M03
G04 P0.000000
G82 X-0.4000 Y1.9000  Z-0.0730 F20    R0.0500  P0.010000
G82 X-0.5000 Y1.7800  
G82 X-0.6000 Y1.9000  
G82 X-0.7700 Y1.6600  
G82 X-0.9700 Y1.6600  
G82 X-1.0200 Y1.8500  
G82 X-1.2000 Y1.9000  
G82 X-1.3500 Y2.0000  
G82 X-1.5500 Y2.0000  
G82 X-1.5000 Y2.1500  
G82 X-1.4700 Y2.2500  
G82 X-1.6700 Y2.2500  
G82 X-1.7000 Y2.1500  
G82 X-1.8000 Y2.2000  
G82 X-1.8000 Y2.4000  
G82 X-1.7000 Y2.4500  
G82 X-1.8300 Y2.5200  
G82 X-1.9400 Y2.6000  
G82 X-2.0100 Y2.4000  
G82 X-1.9350 Y2.3500  
G82 X-2.0100 Y2.3000  
G82 X-2.1500 Y2.3300  
G82 X-2.0000 Y2.1250  
G82 X-2.0500 Y2.0500  
G82 X-1.9500 Y2.0500  
G82 X-1.8500 Y2.0000  
G82 X-1.9000 Y1.7600  
G82 X-1.7000 Y1.7600  
G82 X-1.7400 Y1.6400  
G82 X-1.5000 Y1.5000  
G82 X-1.4000 Y1.5000  
G82 X-1.3000 Y1.5000  
G82 X-1.2000 Y1.5000  
G82 X-1.2000 Y1.6000  
G82 X-1.3500 Y1.7000  
G82 X-1.4400 Y1.6400  
G82 X-1.4000 Y1.2000  
G82 X-1.3000 Y1.2000  
G82 X-1.2000 Y1.2000  
G82 X-1.1200 Y1.0400  
G82 X-1.3100 Y1.0000  
G82 X-1.5200 Y0.8700  
G82 X-1.6100 Y1.0000  
G82 X-1.7100 Y0.9800  
G82 X-1.8800 Y1.0000  
G82 X-2.0800 Y1.0000  
G82 X-2.3000 Y1.0300  
G82 X-2.3000 Y0.8900  
G82 X-2.5000 Y0.8500  
G82 X-2.6400 Y0.9600  
G82 X-2.7700 Y0.8500  
G82 X-3.0500 Y0.9200  
G82 X-3.1000 Y0.9950  
G82 X-3.1500 Y0.9200  
G82 X-3.2900 Y0.9800  
G82 X-3.4000 Y1.1000  
G82 X-3.4000 Y1.2000  
G82 X-3.4500 Y1.3500  
G82 X-3.3750 Y1.4000  
G82 X-3.4500 Y1.4500  
G82 X-3.3450 Y1.6100  
G82 X-3.2700 Y1.6600  
G82 X-3.2700 Y1.5600  
G82 X-3.0500 Y1.5000  
G82 X-3.1000 Y1.4000  
G82 X-3.1000 Y1.2000  
G82 X-3.0000 Y1.1000  
G82 X-2.7700 Y1.1500  
G82 X-2.6400 Y1.2600  
G82 X-2.5300 Y1.2700  
G82 X-2.5000 Y1.1500  
G82 X-2.3900 Y1.3900  
G82 X-2.2300 Y1.2700  
G82 X-2.0900 Y1.3900  
G82 X-2.3400 Y1.6100  
G82 X-2.5400 Y1.6100  
G82 X-2.7500 Y1.6000  
G82 X-2.7500 Y1.7000  
G82 X-2.6500 Y1.8500  
G82 X-2.8650 Y1.8500  
G82 X-2.8900 Y2.1300  
G82 X-2.7800 Y2.1200  
G82 X-2.6600 Y2.1000  
G82 X-2.4600 Y2.1000  
G82 X-2.2500 Y1.8500  
G82 X-2.7500 Y1.5000  
G82 X-2.8000 Y1.4000  
G82 X-3.1650 Y1.8500  
G82 X-3.1700 Y1.9600  
G82 X-3.1500 Y2.1500  
G82 X-3.0500 Y2.1500  
G82 X-3.1200 Y2.3000  
G82 X-3.0200 Y2.3800  
G82 X-3.0200 Y2.4800  
G82 X-2.8900 Y2.3300  
G82 X-2.7800 Y2.3200  
G82 X-2.7000 Y2.4500  
G82 X-2.8100 Y2.4900  
G82 X-2.8100 Y2.6900  
G82 X-2.8800 Y2.7000  
G82 X-3.0800 Y2.7000  
G82 X-3.2200 Y2.6200  
G82 X-3.2200 Y2.5200  
G82 X-3.3800 Y2.4100  
G82 X-3.4200 Y2.3000  
G82 X-3.3400 Y2.1200  
G82 X-3.3700 Y1.9600  
G82 X-3.5400 Y2.1200  
G82 X-3.3800 Y2.7100  
G82 X-3.2300 Y2.7600  
G82 X-3.2300 Y2.9600  
G82 X-3.1300 Y3.0000  
G82 X-3.0300 Y3.0000  
G82 X-2.9100 Y2.9100  
G82 X-2.6100 Y2.9100  
G82 X-2.6000 Y2.7800  
G82 X-2.6000 Y2.6800  
G82 X-2.4000 Y2.4500  
G82 X-2.1500 Y2.6300  
G82 X-2.1000 Y2.8000  
G82 X-2.1500 Y2.8750  
G82 X-2.2000 Y2.8000  
G82 X-1.9400 Y2.9000  
G82 X-1.8300 Y2.8200  
G82 X-1.8300 Y3.0500  
G82 X-1.6300 Y3.0500  
G82 X-1.4500 Y3.0000  
G82 X-1.4700 Y2.8200  
G82 X-1.4700 Y2.6200  
G82 X-1.4000 Y2.4500  
G82 X-1.3000 Y2.4000  
G82 X-1.2000 Y2.4000  
G82 X-1.1000 Y2.4000  
G82 X-1.0000 Y2.4000  
G82 X-0.9500 Y2.3000  
G82 X-1.0500 Y2.3000  
G82 X-1.0200 Y2.1500  
G82 X-0.8000 Y2.4000  
G82 X-0.8000 Y2.7000  
G82 X-1.0000 Y2.7000  
G82 X-1.1000 Y2.7000  
G82 X-1.2000 Y2.7000  
G82 X-1.3000 Y2.7000  
G82 X-1.2400 Y2.8000  
G82 X-1.0400 Y2.8000  
G82 X-1.2500 Y3.0000  
G82 X-0.8900 Y1.4400  
G82 X-0.9000 Y1.3000  
G82 X-0.7000 Y1.3000  
G82 X-0.6900 Y1.4400  
G82 X-0.5000 Y1.5800  
G82 X-0.4400 Y0.7600  
G82 X-0.4400 Y0.6800  
G82 X-0.6450 Y0.7500  
G82 X-0.6450 Y0.4500  
G82 X-1.0500 Y0.4400  
G82 X-1.0500 Y0.3400  
G82 X-1.1900 Y0.2600  
G82 X-1.3000 Y0.2000  
G82 X-1.4000 Y0.2000  
G82 X-1.5000 Y0.2000  
G82 X-1.6000 Y0.2000  
G82 X-1.6000 Y0.5000  
G82 X-1.5000 Y0.5000  
G82 X-1.4000 Y0.5000  
G82 X-1.3000 Y0.5000  
G82 X-1.1900 Y0.4600  
G82 X-1.1200 Y0.8400  
G82 X-1.5200 Y0.6700  
G82 X-1.6100 Y0.6000  
G82 X-1.7200 Y0.7400  
G82 X-1.8100 Y0.6000  
G82 X-2.0200 Y0.7400  
G82 X-2.3000 Y0.5000  
G82 X-2.4500 Y0.5000  
G82 X-2.6500 Y0.5000  
G82 X-2.7250 Y0.4000  
G82 X-2.8000 Y0.4500  
G82 X-2.8000 Y0.3500  
G82 X-2.8000 Y0.2000  
G82 X-2.6000 Y0.2000  
G82 X-2.4500 Y0.1000  
G82 X-2.3700 Y0.1500  
G82 X-2.3000 Y0.3000  
G82 X-2.2250 Y0.3100  
G82 X-2.1500 Y0.2600  
G82 X-2.1500 Y0.3600  
G82 X-2.1700 Y0.1500  
G82 X-2.4500 Y0.3000  
G82 X-3.2900 Y0.6800  
G82 X-1.7100 Y1.2800  
G82 X-1.5000 Y1.2000  
M05
G00 Z1.5000  
G00 X0.0000  Y0.0000  
M06 T03  ; 0.0394  
G01 Z0.0000  F20    
M06 
G00 Z0.0500  
M03
G04 P0.000000
G82 X-0.6000 Y2.4500  Z-0.0730 F20    R0.0500  P0.010000
G82 X-0.6000 Y2.5500  
G82 X-0.8000 Y0.2000  
G82 X-0.8000 Y0.1000  
M05
G00 Z1.5000  
G00 X0.0000  Y0.0000  
M06 T04  ; 0.0400  
G01 Z0.0000  F20    
M06 
G00 Z0.0500  
M03
G04 P0.000000
G82 X-3.6000 Y0.2000  Z-0.0730 F20    R0.0500  P0.010000
G82 X-3.6000 Y0.3000  
G82 X-3.6000 Y0.4000  
G82 X-3.6000 Y0.5000  
G82 X-3.6000 Y0.6000  
G82 X-3.6000 Y0.7000  
G82 X-3.6000 Y0.8000  
G82 X-3.6000 Y0.9000  
G82 X-3.7000 Y0.9000  
G82 X-3.7000 Y0.8000  
G82 X-3.7000 Y0.7000  
G82 X-3.7000 Y0.6000  
G82 X-3.7000 Y0.5000  
G82 X-3.7000 Y0.4000  
G82 X-3.7000 Y0.3000  
G82 X-3.7000 Y0.2000  
M05
G00 Z1.5000  
G00 X0.0000  Y0.0000  
M06 T05  ; 0.0472  
G01 Z0.0000  F20    
M06 
G00 Z0.0500  
M03
G04 P0.000000
G82 X-0.1500 Y0.6531  Z-0.0730 F20    R0.0500  P0.010000
G82 X-0.1500 Y0.8500  
G82 X-0.1500 Y1.0469  
G82 X-0.1500 Y1.4531  
G82 X-0.1500 Y1.6500  
G82 X-0.1500 Y1.8469  
G82 X-0.1500 Y2.1531  
G82 X-0.1500 Y2.3500  
G82 X-0.1500 Y2.5469  
M05
G00 Z1.5000  
G00 X0.0000  Y0.0000  
M06 T06  ; 0.0512  
G01 Z0.0000  F20    
M06 
G00 Z0.0500  
M03
G04 P0.000000
G82 X-0.0980 Y0.2130  Z-0.0730 F20    R0.0500  P0.010000
G82 X-0.0984 Y0.2469  
G82 X-0.0980 Y0.2800  
G82 X-0.4980 Y0.0420  
G82 X-0.5315 Y0.0421  
G82 X-0.5650 Y0.0420  
G82 X-0.6180 Y0.2140  
G82 X-0.6181 Y0.2469  
G82 X-0.6180 Y0.2800  
G82 X-0.5650 Y2.6920  
G82 X-0.5315 Y2.6921  
G82 X-0.4980 Y2.6920  
G82 X-0.6180 Y2.8640  
G82 X-0.6181 Y2.8969  
G82 X-0.6180 Y2.9300  
G82 X-0.0980 Y2.9300  
G82 X-0.0984 Y2.8969  
G82 X-0.0980 Y2.8630  
T01 
G00 Z0.2500  
M05
M02
